assets/svg/icon_categories_following.svg

<svg width="24" height="24" viewBox="0 0 24 24" fill="none" xmlns="http://www.w3.org/2000/svg">
<path d="M8.8 20.5C8.8 20.8866 9.1134 21.2 9.5 21.2C9.8866 21.2 10.2 20.8866 10.2 20.5H8.8ZM9 11.7C9.3866 11.7 9.7 11.3866 9.7 11C9.7 10.6134 9.3866 10.3 9 10.3V11.7ZM1.8 16.5C1.8 16.8866 2.1134 17.2 2.5 17.2C2.8866 17.2 3.2 16.8866 3.2 16.5H1.8ZM11.7069 5.11193C11.9284 5.42878 12.3649 5.50608 12.6817 5.28458C12.9986 5.06307 13.0759 4.62665 12.8544 4.3098L11.7069 5.11193ZM17.495 18.505C17.2216 18.2317 16.7784 18.2317 16.505 18.505C16.2317 18.7784 16.2317 19.2216 16.505 19.495L17.495 18.505ZM19 21L18.505 21.495C18.7784 21.7683 19.2216 21.7683 19.495 21.495L19 21ZM22.995 17.995C23.2683 17.7216 23.2683 17.2784 22.995 17.005C22.7216 16.7317 22.2784 16.7317 22.005 17.005L22.995 17.995ZM19.3 11C19.3 12.8225 17.8225 14.3 16 14.3V15.7C18.5957 15.7 20.7 13.5957 20.7 11H19.3ZM16 14.3C14.1775 14.3 12.7 12.8225 12.7 11H11.3C11.3 13.5957 13.4043 15.7 16 15.7V14.3ZM12.7 11C12.7 9.17746 14.1775 7.7 16 7.7V6.3C13.4043 6.3 11.3 8.40426 11.3 11H12.7ZM16 7.7C17.8225 7.7 19.3 9.17746 19.3 11H20.7C20.7 8.40426 18.5957 6.3 16 6.3V7.7ZM16 14.3C15.4874 14.3 13.749 14.4918 12.1133 15.3265C10.4466 16.1769 8.8 17.7522 8.8 20.5H10.2C10.2 18.4478 11.3786 17.2731 12.7496 16.5735C14.1515 15.8582 15.6632 15.7 16 15.7V14.3ZM9 10.3C7.17746 10.3 5.7 8.82254 5.7 7H4.3C4.3 9.59574 6.40426 11.7 9 11.7V10.3ZM5.7 7C5.7 5.17746 7.17746 3.7 9 3.7V2.3C6.40426 2.3 4.3 4.40426 4.3 7H5.7ZM9 10.3C8.48737 10.3 6.74904 10.4918 5.1133 11.3265C3.44662 12.1769 1.8 13.7522 1.8 16.5H3.2C3.2 14.4478 4.37865 13.2731 5.74961 12.5735C7.1515 11.8582 8.66317 11.7 9 11.7V10.3ZM9 3.7C10.1196 3.7 11.1092 4.25689 11.7069 5.11193L12.8544 4.3098C12.0059 3.09615 10.596 2.3 9 2.3V3.7ZM16.505 19.495L18.505 21.495L19.495 20.505L17.495 18.505L16.505 19.495ZM19.495 21.495L22.995 17.995L22.005 17.005L18.505 20.505L19.495 21.495Z" fill="#0E0E0E"/>
</svg>

<svg xmlns="http://www.w3.org/2000/svg" width="24" height="24" fill="none"><path fill="#0E0E0E" d="M8.8 20.5a.7.7 0 1 0 1.4 0zm.2-8.8a.7.7 0 1 0 0-1.4zm-7.2 4.8a.7.7 0 1 0 1.4 0zm9.907-11.388a.7.7 0 0 0 1.147-.802zm5.788 13.393a.7.7 0 0 0-.99.99zM19 21l-.495.495a.7.7 0 0 0 .99 0zm3.995-3.005a.7.7 0 0 0-.99-.99zM19.3 11a3.3 3.3 0 0 1-3.3 3.3v1.4a4.7 4.7 0 0 0 4.7-4.7zM16 14.3a3.3 3.3 0 0 1-3.3-3.3h-1.4a4.7 4.7 0 0 0 4.7 4.7zM12.7 11A3.3 3.3 0 0 1 16 7.7V6.3a4.7 4.7 0 0 0-4.7 4.7zM16 7.7a3.3 3.3 0 0 1 3.3 3.3h1.4A4.7 4.7 0 0 0 16 6.3zm0 6.6c-.513 0-2.251.192-3.887 1.026-1.666.85-3.313 2.426-3.313 5.174h1.4c0-2.052 1.179-3.227 2.55-3.927 1.402-.715 2.913-.873 3.25-.873zm-7-4A3.3 3.3 0 0 1 5.7 7H4.3A4.7 4.7 0 0 0 9 11.7zM5.7 7A3.3 3.3 0 0 1 9 3.7V2.3A4.7 4.7 0 0 0 4.3 7zM9 10.3c-.513 0-2.251.192-3.887 1.026-1.666.85-3.313 2.426-3.313 5.174h1.4c0-2.052 1.179-3.227 2.55-3.927C7.152 11.859 8.663 11.7 9 11.7zm0-6.6c1.12 0 2.11.557 2.707 1.412l1.147-.802A4.7 4.7 0 0 0 9 2.3zm7.505 15.795 2 2 .99-.99-2-2zm2.99 2 3.5-3.5-.99-.99-3.5 3.5z"/></svg>
